X: 1
T:Fubu's Mazurka
M:3/4
L:1/8
Q:180
C:Thierry Mirebeau
S:Blowzabella
O:Fubu's Mazurka
K:Gm
D2|G2 GA Bd|c3 d cA|BG DG BG|A^F DF AF|!
G2 GA Bd|c3 d cA|BG DG A^F|G4:|!
K:G
GA|B2 BA GF|E4 AB|cA FA cA|B2 GD GA|!
B2 BA GF|E4 AB|c2 cA FA|G4:|!
